!!!SOCIAL_FUNCTION:	memorial ceremony songs
!!!PDT:	1932
!!!OTL: No_36_Coyote_Makes_a_Request.krn
!!!REG: Southwest
!!!LANG: Non-Tone
!!!LING_GROUP: Yuman-Cochimi
**kern	**kern
*staff2	*staff1
=1-	=1-
*clefF4	*clefF4
*k[f#c#g#d#a#]	*k[f#c#g#d#a#]
*M2/4	*M2/4
8GG#/L	4B\
8GG#/J	.
8GG#/L	4c#\
8GG#/J	.
=2	=2
8GG#/L	8B\L
8GG#/J	8c#\J
8GG#/L	8c#\L
8GG#/J	8d#\J
=3	=3
2r	4c#\
.	8B\
.	8r
=4	=4
2r	4c#\
.	16c#\LK
.	8.B\J
=5	=5
2r	8F#\L
.	8B\J
.	8B\L
.	8G#\J
=6	=6
2r	4F#\
.	8r
.	8D#\
=7	=7
2r	8F#\L
.	8D#\J
.	4F#\
=8	=8
2r	8D#\L
.	8F#\J
.	8F#\L
.	8G#\J
=9	=9
2r	4F#\
.	4r
=10	=10
2r	8.B\L
.	16c#\Jk
.	4B\
=11	=11
2r	8F#\L
.	8B\J
.	8B\L
.	8G#\J
=12	=12
2r	4F#\
.	8r
.	8D#\
=13	=13
2r	8F#\L
.	8D#\J
.	4F#\
=14	=14
2r	8D#\L
.	8F#\J
.	8F#\L
.	8G#\J
=15	=15
2r	4F#\
.	4r
=16	=16
2r	4B\
.	4B\
=17	=17
2r	8F#\L
.	8B\J
.	8B\L
.	8G#\J
=18	=18
2r	4F#\
.	8r
.	8D#\
=19	=19
2r	8F#\L
.	8D#\J
.	4F#\
=20	=20
2r	8D#\L
.	8D#\J
.	8F#\L
.	8G#\J
=21	=21
2r	4F#\
.	4r
=22	=22
2r	4.F#\
.	8D#\
=23	=23
2r	8F#\L
.	8F#\J
.	8F#\L
.	8F#\J
=24	=24
2r	2F#\
==	==
*-	*-
